X:980
T:Reel 980
M:4/4
K:Gmaj
L:1/8
Bc|d2BG AG (3AGF |G2Bd gedc|BcAG BGAG|FDEF G2dc|B2BG ADDC|B,DGB dedc|B2AG BGAG|FDEF G2|Bd| (3gfe dB egdB|GBdB cAFA| (3Bcd gf egfB|AFDE FDdc| (3BcB dB eBfB|GBdB cAFD|GBdf egfa|gedB G2|
